LPSOR/Assets/Models/CharacterModelSprites/Default Body/Arms/RLowerArm.svg

<?xml version="1.0" encoding="UTF-8" standalone="no"?>
<svg
   xmlns:dc="http://purl.org/dc/elements/1.1/"
   xmlns:cc="http://creativecommons.org/ns#"
   xmlns:rdf="http://www.w3.org/1999/02/22-rdf-syntax-ns#"
   xmlns:svg="http://www.w3.org/2000/svg"
   xmlns="http://www.w3.org/2000/svg"
   xmlns:sodipodi="http://sodipodi.sourceforge.net/DTD/sodipodi-0.dtd"
   xmlns:inkscape="http://www.inkscape.org/namespaces/inkscape"
   height="21.722221"
   width="13.084756"
   version="1.1"
   id="svg8"
   sodipodi:docname="RLowerArm.svg"
   inkscape:version="0.92.4 (5da689c313, 2019-01-14)">
  <metadata
     id="metadata14">
    <rdf:RDF>
      <cc:Work
         rdf:about="">
        <dc:format>image/svg+xml</dc:format>
        <dc:type
           rdf:resource="http://purl.org/dc/dcmitype/StillImage" />
      </cc:Work>
    </rdf:RDF>
  </metadata>
  <defs
     id="defs12" />
  <sodipodi:namedview
     pagecolor="#ffffff"
     bordercolor="#666666"
     borderopacity="1"
     objecttolerance="10"
     gridtolerance="10"
     guidetolerance="10"
     inkscape:pageopacity="0"
     inkscape:pageshadow="2"
     inkscape:window-width="1920"
     inkscape:window-height="1007"
     id="namedview10"
     showgrid="false"
     inkscape:zoom="15.380387"
     inkscape:cx="-0.25371035"
     inkscape:cy="10.376698"
     inkscape:window-x="0"
     inkscape:window-y="0"
     inkscape:window-maximized="1"
     inkscape:current-layer="g6" />
  <g
     transform="matrix(2,0,0,2,6.475,10.822222)"
     id="g6">
    <path
       d="m -1.9,-4.7 q 1,-0.8 2.3,-0.7 1.3,0.1 2.1,1 l 0.55,1 0.25,5.95 q 0.1,1.9 -1.85,2.6 -2,0.1 -2.85,-1.55 -0.7,-1.3 -0.45,-4.5 L -1.9,-4.7"
       id="path2"
       style="fill:#bfbfbf;fill-opacity:1;fill-rule:evenodd;stroke:none"
       inkscape:connector-curvature="0" />
    <path
       d="m -1.9,-4.7 0.05,3.8 q -0.25,3.2 0.45,4.5 0.85,1.65 2.85,1.55 l -1.7,0.3 q -1.4,-0.1 -2.25,-1.1 -0.65,-0.7 -0.7,-1.55 -0.15,-3.05 0.3,-5.35 0.2,-1.4 1,-2.15"
       id="path4"
       style="fill:#919191;fill-opacity:1;fill-rule:evenodd;stroke:none"
       inkscape:connector-curvature="0" />
  </g>
</svg>

<?xml version="1.0" encoding="UTF-8" standalone="no"?>
<svg
   xmlns:dc="http://purl.org/dc/elements/1.1/"
   xmlns:cc="http://creativecommons.org/ns#"
   xmlns:rdf="http://www.w3.org/1999/02/22-rdf-syntax-ns#"
   xmlns:svg="http://www.w3.org/2000/svg"
   xmlns="http://www.w3.org/2000/svg"
   xmlns:sodipodi="http://sodipodi.sourceforge.net/DTD/sodipodi-0.dtd"
   xmlns:inkscape="http://www.inkscape.org/namespaces/inkscape"
   height="43.4px"
   width="26.2px"
   version="1.1"
   id="svg8"
   sodipodi:docname="RLowerArm.svg"
   inkscape:version="0.92.4 (5da689c313, 2019-01-14)">
  <metadata
     id="metadata14">
    <rdf:RDF>
      <cc:Work
         rdf:about="">
        <dc:format>image/svg+xml</dc:format>
        <dc:type
           rdf:resource="http://purl.org/dc/dcmitype/StillImage" />
      </cc:Work>
    </rdf:RDF>
  </metadata>
  <defs
     id="defs12" />
  <sodipodi:namedview
     pagecolor="#ffffff"
     bordercolor="#666666"
     borderopacity="1"
     objecttolerance="10"
     gridtolerance="10"
     guidetolerance="10"
     inkscape:pageopacity="0"
     inkscape:pageshadow="2"
     inkscape:window-width="1920"
     inkscape:window-height="1007"
     id="namedview10"
     showgrid="false"
     inkscape:zoom="15.380387"
     inkscape:cx="17.584399"
     inkscape:cy="21.2767"
     inkscape:window-x="0"
     inkscape:window-y="0"
     inkscape:window-maximized="1"
     inkscape:current-layer="g6" />
  <g
     transform="matrix(4.0, 0.0, 0.0, 4.0, 13.0, 21.6)"
     id="g6">
    <path
       d="M-1.9 -4.7 Q-0.9 -5.5 0.4 -5.4 1.7 -5.3 2.5 -4.4 L3.05 -3.4 3.3 2.55 Q3.4 4.45 1.45 5.15 -0.55 5.25 -1.4 3.6 -2.1 2.3 -1.85 -0.9 L-1.9 -4.7"
       fill="#eba5dd"
       fill-rule="evenodd"
       stroke="none"
       id="path2"
       style="fill:#bfbfbf;fill-opacity:1" />
    <path
       d="M-1.9 -4.7 L-1.85 -0.9 Q-2.1 2.3 -1.4 3.6 -0.55 5.25 1.45 5.15 L-0.25 5.45 Q-1.65 5.35 -2.5 4.35 -3.15 3.65 -3.2 2.8 -3.35 -0.25 -2.9 -2.55 -2.7 -3.95 -1.9 -4.7"
       fill="#de6dc8"
       fill-rule="evenodd"
       stroke="none"
       id="path4"
       style="fill:#919191;fill-opacity:1" />
  </g>
</svg>
